_images/SocialNetwork/telegram.svg

<svg width="30" height="30" viewBox="0 0 30 30" fill="none" xmlns="http://www.w3.org/2000/svg">
<g clip-path="url(#clip0_5:138)">
<path d="M7.62939e-06 15.0001C7.62939e-06 23.2844 6.7157 30.0001 15 30.0001C23.2844 30.0001 30.0001 23.2844 30.0001 15.0001C30.0001 6.71575 23.2844 6.15716e-05 15 6.15716e-05C6.7157 6.15716e-05 7.62939e-06 6.71575 7.62939e-06 15.0001" fill="url(#paint0_linear_5:138)"/>
<path d="M10.1536 16.0964L11.9333 21.0222C11.9333 21.0222 12.1557 21.4829 12.3941 21.4829C12.6324 21.4829 16.1759 17.7965 16.1759 17.7965L20.1166 10.1852L10.2172 14.8251L10.1536 16.0964Z" fill="#C8DAEA"/>
<path d="M12.5132 17.3597L12.1715 20.9904C12.1715 20.9904 12.0285 22.1027 13.1408 20.9904C14.2531 19.8782 15.3177 19.0201 15.3177 19.0201" fill="#A9C6D8"/>
<path d="M10.1857 16.2723L6.52527 15.0795C6.52527 15.0795 6.08836 14.9022 6.2287 14.4996C6.25769 14.4166 6.31603 14.3461 6.49082 14.2242C7.30209 13.6589 21.5041 8.55415 21.5041 8.55415C21.5041 8.55415 21.9051 8.41915 22.1422 8.50889C22.2505 8.54995 22.3197 8.59635 22.3779 8.76567C22.3991 8.82732 22.4113 8.95838 22.4097 9.08881C22.4084 9.18288 22.397 9.26995 22.3886 9.40661C22.3021 10.8024 19.714 21.2182 19.714 21.2182C19.714 21.2182 19.5592 21.8278 19.0043 21.8485C18.8019 21.8561 18.5563 21.8151 18.2627 21.5625C17.1739 20.6259 13.4103 18.0966 12.5788 17.5404C12.5318 17.5092 12.5185 17.4684 12.5105 17.4286C12.4988 17.3701 12.5614 17.2971 12.5614 17.2971C12.5614 17.2971 19.1146 11.4719 19.289 10.8607C19.3025 10.8133 19.2518 10.7899 19.183 10.8104C18.7478 10.9705 11.2025 15.735 10.3699 16.2612C10.3212 16.292 10.1846 16.2722 10.1846 16.2722" fill="white"/>
</g>
<defs>
<linearGradient id="paint0_linear_5:138" x1="15" y1="30" x2="15" y2="-6.60837e-05" gradientUnits="userSpaceOnUse">
<stop stop-color="#1D93D2"/>
<stop offset="1" stop-color="#38B0E3"/>
</linearGradient>
<clipPath id="clip0_5:138">
<rect width="30" height="30" fill="white"/>
</clipPath>
</defs>
</svg>

<svg xmlns="http://www.w3.org/2000/svg" width="30" height="30" fill="none"><g clip-path="url(#a)"><path fill="url(#b)" d="M0 15c0 8.284 6.716 15 15 15 8.284 0 15-6.716 15-15 0-8.284-6.716-15-15-15C6.716 0 0 6.716 0 15"/><path fill="#C8DAEA" d="m10.154 16.096 1.78 4.926s.222.46.46.46c.238 0 3.782-3.685 3.782-3.685l3.94-7.612-9.899 4.64-.063 1.271Z"/><path fill="#A9C6D8" d="m12.513 17.36-.341 3.63s-.144 1.113.969 0c1.112-1.112 2.177-1.97 2.177-1.97"/><path fill="#fff" d="m10.186 16.272-3.66-1.192s-.438-.178-.297-.58c.029-.083.087-.154.262-.276.811-.565 15.013-5.67 15.013-5.67s.401-.135.638-.045c.108.041.178.087.236.257.021.061.033.192.032.323-.002.094-.013.18-.021.318-.087 1.395-2.675 11.811-2.675 11.811s-.155.61-.71.63c-.202.008-.448-.033-.741-.285-1.09-.937-4.853-3.466-5.684-4.023-.047-.03-.06-.072-.069-.111-.011-.059.051-.132.051-.132s6.554-5.825 6.728-6.436c.013-.048-.037-.071-.106-.05-.435.16-7.98 4.924-8.813 5.45-.049.031-.185.011-.185.011"/></g><defs><linearGradient id="b" x1="15" x2="15" y1="30" y2="0" gradientUnits="userSpaceOnUse"><stop stop-color="#1D93D2"/><stop offset="1" stop-color="#38B0E3"/></linearGradient><clipPath id="a"><path fill="#fff" d="M0 0h30v30H0z"/></clipPath></defs></svg>
